X:9
T:Rollin in the Ryegrass (Shannon Heaton variations)
D:https://www.youtube.com/watch?v=JLdJIf_USs4
R:reel
M:2/2
K:D
%
% 1er passage
% -----------
% 
 ABAF DFAF | GGBG dGBG | ABAF DEFA | BzAF EFDB | 
% m2: short roll sur le G
 AAAF DFAF | G2BG dGBG | ABAF DEFA | BzAF EFDB ||
% m5: roll sur le A
 ABde fzfd | GGGe fedB | ABde fzdf | afdf efdB | 
 ABde fzdf | GGGe fedB | ABde fzdf | afdf efdB ||
% m13: inversion fd <-> df
%
% 2e passage
% -----------
%
 A3F DEFA | GGGB dzBG | ABAF DEFA | BzAF EFDB | 
% m1: note longue
% m2: roll sur le G + inversion BG -> GB
 ABAF DFAF | GABG DGBG | AzAF DEFA | BzAF EFDB || 
% attaque des notes avec le souffle sur les temps 3 et 4 des mesures
% m6: variation mélodique
 ABde fdef | fgfd edB/c/d | ABde fzdf | afdf efdB |
 ABde fzab | gggf fedB | ABde f2z2 | afdf efdB | 
 A8 || 

